X:1
T:Mourn now, my soul - Kirbye
T:#
%%score { 1 | 2 } 3 4 5
L:1/8
Q:1/4=100
M:4/4
K:C
V:1 treble nm="Soprano I" snm="S"
V:2 treble 
V:3 treble nm="Alto" snm="A"
V:4 treble-8 nm="Tenor" snm="T"
V:5 bass nm="Bass" snm="B"
V:1
 z8 |"^Mourn now, my soul" z8 | E8- | E8 | ^F8 | ^G4 A4- |"^George Kirbye\n(1565-1634)" A4 ^G4 | %7
w: ||Mourn||now,|my soul,|* with|
 A4 E4 |[M:4/4] z8 | B4 e4- | e4 B4 | c8- | c4 B4 | A8- | A8 | z4 e4 | c2 A2 (^GABA | %17
w: an- guish,||with an\-|* guish|of|* my|pain:||Cross'd|are my joys, * * *|
 ^G2) A2 B2 c2 | (Bcdc B2) A2 | ^G3 A B2 c2 | B8 | z8 | E4 G2 c2 | (BAGA B2) G2 | (ABcB A2) G2 | %25
w: * cross'd are my|joys * * * * which|hope did ev- er|give,||cross'd are my|joys, * * * * my|joys, * * * * my|
 (FEDE FG A2- | A2) F2 F2 D2 | E6 D2 | ^C4 z4 | z2 c2 (B3 A) | ^G2 A4 G2 | A4 z4 | z8 | %33
w: joys, * * * * * *|* which hope did|ev- er|give;|Dry are *|* mine *|eyes,||
 e4- e2 d2- | d2 c2 B4 | z2 e2 e3 d | e2 (dc) B4 | z8 | z4 z2 B2 | c3 B c2 (BA) | ^G4 z2 E2 | %41
w: dry * are|* mine eyes|with shed- ding|tears in * vain,||with|shed- ding: tears in *|vain, in|
 E4 E4- | E4 D2 C2 | D4 E4 | F4 F4 | E8 | z8 | z8 | z8 | z4 A4 | ^G4 c4 | B6 B2 | A4 z2 A2 | %53
w: vain; Dead|* is my|heart, dead|is my|heart||||which|ne- ver|more can|live; Hard|
 G2 F2 E4 | E2 D2 ^C4 | D2 d2 c2 B2 | A4 G4 | z8 | z2 c4 B2 | A8- | A4 A4 | ^G4 z2 A2- | A2 c2 B4 | %63
w: are my tor-|ments, my tor-|ments, hard are my|tor- ments,||liv- ing|thus|* in|grief; Hard\-|* er yet|
 A4 ^G4 | z2 A2 G2 F2 | E6 E2 | E8 | z8 | z2 d4 d2 | c4 B4 | A4 z2 G2 | E2 F2 E3 E | ^F4 =F4- | %73
w: her heart|that yield- eth|no re-|lief,||hard- er|yet her|heart that|yield- eth no re-|lief, hard\-|
 F2 A2 G4- | G4 F4 | E8- | E4 z2 A2 | =G4[Q:1/4=98] F4 |[Q:1/4=93] E8- | %79
w: * er yet|* her|heart|* that|yield- eth|no|
[Q:1/4=88] E4[Q:1/4=85] E4 |[Q:1/4=84] E8 |] %81
w: * re-|lief.|
V:2
 E8- | E8 | ^G8 | A8- | A4 B4- | B4 c4- | c4 B4- | B2 E2 A4- |[M:4/4] A4 ^F4 | E8- | E8 | z4 A4 | %12
w: Mourn||now,|my|* soul,|* with|* an\-|* guish of|* my|pain||with|
 e6 e2 | d4 (c4- | c4 B2 A2) | ^G4 z2 E2 | A2 c2 (BA^GA | B2) c2 d2 e2 | (dcBc d3) c | %19
w: an- guish|of my||pain: Cross'd|are my joys, * * *|* cross'd are my|joys * * * * which|
 B3 A ^G2 A2 | ^G8 | z8 | z8 | d4 d2 e2 | (cBAB c2) c2 | (defe d2) c2- | c2 B4 A2 | (^G2 A4) G2 | %28
w: hope did ev- er|give,|||cross'd are my|joys, * * * * my|joys * * * * which|* hope did|ev\- * er|
 A8 | z4 z2 d2 | c4 B4 | A4 z4 | z8 | c4- c2 B2- | B2 A2 ^G2 B2 | c3 B (c2 BA | ^G2 A4) G2 | A8 | %38
w: give;|Dry|are mine|eyes,||dry * are|* mine eyes with|shed- ding tears * *|* * in|vain,|
 z4 z2 e2 | e3 d (e2 dc | B2) B2 B3 A | ^G2 A2 B4 | z4 A4 | F4 E4 | D8 | z4 G4 | c8 | B4 A4- | %48
w: with|shed- ding tears, * *|* with shed- ding|tears in vain;|Dead|is my|heart|which|ne-|ver more|
 A4 ^G4 | A8 | z2 E2 C2 A,2 | E6 D2 | ^C8 | z4 A4 | G2 F2 E4 | ^F2 A2 A2 G2 | ^F4 G2 c2 | %57
w: * can|live,|which ne- ver|more can|live;|Hard|are my tor-|ments, hard are my|tor- ments, hard|
 B2 A2 ^G4 | A2 =G4 G2 | F4 (E4- | E4 D4) | E8 | z8 | z8 | z8 | z8 | z4 A4- | A2 _B4 A2- | %68
w: are my tor-|ments liv- ing|thus in||grief;|||||Hard\-|* er yet|
 A2 ^G2 A4- | A4 z2 ^G2 | A4 _B4 | A6 A2 | A8 | z8 | z4 d4- | d2 d2 c4 | B4 A4 | z2 c2 B2 A2 | %78
w: * her heart|* that|yield- eth|no re-|lief,||hard\-|* er yet|her heart|that yield- eth|
 (^G4 A4- | A4) ^G4 | A8 |] %81
w: no *|* re-|lief.|
V:3
 z8 | E8- | E8 | ^C8 | D8 | E8- | E4 z2 B,2 | E8 |[M:4/4] A,4 D4- | D4 C4 | B,8 | z4 E4 | E6 G2 | %13
w: |Mourn||now,|my|soul,|* with|an-|guish of|* my|pain,|with|an- guish|
 (F6 E2 | C4) D4 | E8 | z4 E4 | E2 A2 (=GFEF | G6) D2 | E3 F E2 A,2 | E4 z2 E,2 | %21
w: of *|* my|pain:|Cross'd|are my joys * * *|* which|hope did ev- er|give, cross'd|
 A,2 C2 (B,A,^G,A, | B,2) C2 D2 E2 | (DCB,C D2) z2 | z2 A2 A2 E2 | (FGAG F2) E2 | D6 A,2 | %27
w: are my joys, * * *|* cross'd are my|joys, * * * *|cross'd are my|joys * * * * which|hope did|
 B,2 A,2 E4- | E4 z2 E2 | E4 F4 | E8 | z2 E2 E3 D | E2 (DC) B,4 | z2 A,2 C2 D2 | E4 z2 E2 | %35
w: ev\- er give;|* Dry|are mine|eyes|with shed- ding|tears in * vain,|dry are mine|eyes with|
 A3 ^G A2 (=G^F) | E8 | z2 E2 E3 D | E2 (DC) B,4 | z4 z2 E2 | E3 D (E2 DC | B,2 A,4) ^G,2 | A,8 | %43
w: shed- ding tears in *|vain,|with shed- ding|tears in * vain,|with|shed- ding tears * *|* * in|vain;|
 B,4 C4- | C4 B,4 | C8 | z4 E4 | E6 E2 | D4 B,4 | E4 z2 D2 | B,4 A,4 | A,4 ^G,4 | A,4 z2 E2 | %53
w: Dead is|* my|heart|which|ne- ver|more can|live, which|ne- ver|more can|live; Hard|
 E2 D2 C4- | C2 A,2 z4 | z2 D2 =F2 G2 | D4 G,2 G2 | G2 E2 E4 | E2 E4 D2 | C6 B,2 | A,8 | z4 E4- | %62
w: are my tor\-|* ments,|hard are my|tor- ments, hard|are my tor-|ments liv- ing|thus in|grief;|Hard\-|
 E2 F4 E2- | E2 D2 E2 E2 | (E6 DC | B,2) A,2 B,3 B, | ^C4 z2 F2- | F2 F2 E4 | D4 E4 | z2 E2 E4- | %70
w: * er yet|* her heart that|yield\- * *|* eth no re-|lief, hard\-|* er~yet *|her heart|that yield\-|
 E2 D4 E2 | (^C2 D4 C2) | D8 | z8 | z2 B,4 A,2 | ^G,4 A,4 | E,4 z2 E2 | (E4 D2 C2 | B,4) A,4 | %79
w: * eth no|re\- * *|lief,||hard- er|yet her|heart that|yield\- * *|* eth|
 B,6 B,2 | ^C8 |] %81
w: no re-|lief.|
V:4
 z8 | z8 | z8 | z8 | z8 | z8 | E8- | E8 |[M:4/4][K:treble-8] ^F8 | ^G4 A4- | A4 ^G4 | (A6 B2 | %12
w: ||||||Mourn||now,|my soul|* with|an\- *|
 c4) G4 | A8- | A4 A4 | B8 | z8 | z8 | z8 | z8 | z4 e4 | c2 A2 (^GABA | ^G2) A2 (BA=GA | %23
w: * guish|of|* my|pain:|||||Cross'd|are my joys, * * *|* my joys, * * *|
 B2) B2 B2 c2 | (AGFG A2) c2 | B2 A2 A3 G | F4 D2 d2- | d2 c2 B2 B2 | A4 z2 =c2 | c2 e2 d4 | %30
w: * cross'd are my|joys * * * * which|hope did ev- er|give, which hope|* did ev- er|give; Dry|are mine eyes|
 z4 z2 B2 | c3 B (c2 BA | ^G2 A4) G2 | A4 z4 | z8 | z8 | z4 z2 B2 | c3 B (c2 BA) | (^G2 A4) G2 | %39
w: with|shed- ding tears * *|* * in|vain,|||with|shed ding- tears * *|* * in|
 A8 | z2 B2 ^G3 A | E6 B2 | A8 | z4 A4 | F6 F2 | G8 | z4 A4 | ^G4 c4 | B6 B2 | A8 | e8- | e8 | %52
w: vain,|with shed- ding|tears in|vain;|Dead|is my|heart|which|ne- ver|more can|live,|can||
 e4 z2 A2 | =c2 d2 A4 | E2 F2 A4 | A4 z4 | z4 z2 e2 | d2 c2 B4 | A2 E4 G2 | C4 (c4- | c4 B2 A2) | %61
w: live; Hard|are my tor-|ments, my tor-|ments,|hard|are my tor-|ments liv- ing|thus in||
 B4 z2 c2- | c2 A2 B2 (G2 | A4) B4 | A2 c4 A2 | ^G2 (A4 G2) | A4 z2 d2- | d2 d2 c4 | B4 A4- | %69
w: grief; Hard\-|* er yet her|* heart|that yield- eth|no re\- *|lief, hard\-|* er yet|her heart|
 A4 z2 E2 | F4 G4 | A6 A2 | D4 A4- | A2 A2 B4 | G4 d4 | z2 B3 A A2- | A2 ^G2 A4 | z2 =G2 d4- | %78
w: * that|yield- eth|no re-|lief, hard\-|* er yet|her heart,|hard- er yet|* her heart|that yield\-|
 d4 c4 | B6 E2 | E8 |] %81
w: * eth|no re-|lief.|
V:5
 z8 | z8 | z8 | z8 | z8 | E,8- | E,8 | ^C,8 |[M:4/4] D,8 | E,8- | E,4 E,4 | A,8- | A,4 E,4 | F,8 | %14
w: |||||Mourn||now,|my|soul|* with|an\-|* guish|of|
 F,8 | E,8 | z8 | z8 | z8 | z8 | z8 | z4 E,4 | E,2 A,2 (=G,F,E,F, | G,2) G,2 G,2 C,2 | %24
w: my|pain:||||||Cross'd|are my joys, * * *|* cross'd are my|
 (F,G,A,G, F,2) E,2 | D,6 A,,2 | D,4 F,4 | E,8 | z4 A,,4 | C,4 D,4 | E,4 z2 E,2 | %31
w: joys * * * * which|hope did|ev- er|give;|Dry|are mine|eyes with|
 A,3 ^G, A,2 (=G,F,) | E,8 | z8 | z8 | z8 | z4 z2 E,2 | A,3 ^G, A,2 (=G,F,) | E,8 | A,,8 | E,8 | %41
w: shed- ding tears in *|vain,||||with|shed\- ding tears * *||in|vain;|
 z4 E,4 | F,8 | D,8- | D,8 | C,8 | z8 | z8 | z4 E,4 | ^C,4 F,4 | E,8- | E,4 E,4 | A,,8 | %53
w: Dead|is|my||heart|||which|ne- ver|more|* can|live;|
 z4 z2 A,,2 | C,2 D,2 A,,4 | D,4 z4 | z4 z2 E,2 | G,2 A,2 E,4 | A,,2 C,4 G,,2 | A,,8 | F,8 | %61
w: Hard|are my tor-|ments,|hard|are my tor-|ments liv- ing|thus|in|
 E,4 z2 A,2- | A,2 A,2 G,4 | F,4 E,4 | z2 A,,2 C,2 D,2 | E,6 E,2 | A,,4 z4 | z8 | z8 | z8 | z8 | %71
w: grief; Hard\-|* er yet|her heart|that yield- eth|no re-|lief,|||||
 z8 | z4 D,4- | D,2 F,2 E,4- | E,4 D,4 | E,8 | z4 A,,4 | C,4 D,4 | E,8- | E,4 E,4 | A,,8 |] %81
w: |hard\-|* er yet|* her|heart|that|yield- eth|no|* re-|lief.|

